X:1
T:Fredmans Sång nr. 28
T:Fredmans Sång nr. 28
T:Halfdan Kjerulf
T:C. M. Bellman
C:Halfdan Kjerulf
Z:C. M. Bellman
%%score [ 1 2 3 4 ]
L:1/8
Q:1/4=92
M:2/4
K:G
V:1 treble-8 nm="Tenor"
V:2 treble-8 nm="Tenor"
V:3 bass nm="Bass"
V:4 bass nm="Bass"
V:1
"^Andante mosso" z4 | z4 | z4 | z4 | z4 | z4 | z4 | z4 || z2!p! A c | B2 d g |!mf! f2 f f | %11
w: ||||||||Dum och|tjock, hic hæc|hoc han sig|
 g f e d | ^d d d d | e B G B | e f g f | f2 e2 | z2 f e | d2 d g | f2 f f | g f e d | ^d d d d | %21
w: ge- nast lär- de,|hyr- de sig en|svar- ter rock, Ky-|ro- ni öl för-|tär- de.|Dum och|tjock, hic hæc|hoc han sig|ge- nast lär- de,|hyr- de sig en|
 e B G B | e f g f | f2 e2 |] %24
w: svar- ter rock, Ky-|ro- ni öl för-|tär- de.|
V:2
 z4 | z4 | z4 | z4 | z4 | z4 | z4 | z4 || z2!p! F A | G2 B B |!mf! c2 c c | B d G B | A A A A | %13
w: ||||||||Dum och|tjock, hic hæc|hoc han sig|ge- nast lär- de,|hyr- de sig en|
 G B G B | B c B A | A2 G2 | z2 A c | B2 B B | c2 c c | B d G B | A A A A | G B G B | B e e A | %23
w: svar- ter rock, Ky-|ro- ni öl för-|tär- de.|Dum och|tjock, hic hæc|hoc han sig|ge- nast lär- de,|hyr- de sig en|svar- ter rock, Ky-|ro- ni öl för-|
 A2 G2 |] %24
w: tär- de.|
V:3
 B, A, G, F, | G, F, E, F, | G, G, A, A, | B,2 B,2 | C B, A, B, | G, F, E, F, | G, A, B, ^D, | %7
w: Mo- witz skul- le|bli stu- dent, han|Up- sa- la be-|trak- ta,|bör- ja mum- la|ex- cel- lent gram-|ma- ti- ca con-|
 E,2 E,2 ||!mf! D, D, D,2 | G, G, G,2 |!mf! A, A, B,/A,/ G,/A,/ | B,2 B,2 | C B, A, B, | %13
w: trac- ta;|Dum och tjock,|hic hæc hoc|han sig ge- * nast _|lär- de,|hyr- de sig en|
 G, F, E, F, | G, A, B, ^D, | E,2 E,2 | D, D, D,2 | G, G, G,2 | A, A, B,/A,/ G,/A,/ | B,2 B,2 | %20
w: svar- ter rock, Ky-|ro- ni öl för-|tär- de.|Dum och tjock,|hic hæc hoc|han sig ge- * nast _|lär- de,|
 C B, A, B, | G, F, E, F, | G, A, B, ^D, | E,2 E,2 |] %24
w: hyr- de sig en|svar- ter rock, Ky-|ro- ni öl för-|tär- de.|
V:4
 z4 | E, D, C, B,, | E, E, F, E, | ^D, F, D, B,, | A, G, F, ^D, | E, B,, G,, B,, | E, C, B,, B, | %7
w: |Mo- witz skul- le|bli stu- dent, han|Up- sa- la be-|trak- ta, bör- ja|mum- la ex- cel-|lent gram- ma- ti-|
 G, B, G, E, ||!mf! D, D, D,2 | G,, G,, G,,2 |!mf! D,2 D,2 | G,, G, G,, G, | B,, B,, B,, B,, | %13
w: ca con- trac- ta;|Dum och tjock,|hic hæc hoc|han sig|ge- nast lär- de,|hyr- de sig en|
 G, F, E, F, | G, A, B, B,, | E,2 E,2 | D, D, D,2 | G,, G,, G,,2 | D,2 D,2 | G,, G, G,, G, | %20
w: svar- ter rock, Ky-|ro- ni öl för-|tär- de.|Dum och tjock,|hic hæc hoc|han sig|ge- nast lär- de|
 B,, B,, B,, B,, | G, F, E, F, | G, C B, B,, | E,B,, E,,2 |] %24
w: hyr- de sig en|svar- ter rock, Ky-|ro- ni öl för-|tär- * de.|

